X:935
T: Climbing Vine
T: Gabhr\'an (An)
S: B.Breathnach: "Ceol Rince na hEireann" II/287
Z: B.Black
L: 1/8
M: 4/4
R: reel
K: Edor
B2 BA (3Bcd ed|B2 BA BE E2|B2 BA (3Bcd ef|gefd eeed|
B2 BA (3Bcd ed|B2 BA BE E2|B2 BA (3Bcd ef|gefd e2-e2 ||
BE E2 GFGE|D2 ED BE E2|BE E2 GGGA|BcBA BE E2|
BE E2 GFGE|D2 ED BE E2|BE E2 GGGA|B2 BA BE E2 ||

